X: 103
M: C|
L: 1/8
K: G
|: f |\
gagf dfga | fdcA FGAf |
gagf dega | fdcB G3f |\
gagf dfga | fd/c/ dc/B/ cdfa |\
gafg dfcf | AFcA G2 :|

